Yosa-Max-Dark/actions/22x22/draw-cuboid.svg

<?xml version="1.0" encoding="UTF-8"?>
<svg id="svg12" version="1.1" viewBox="0 0 22 22" xmlns="http://www.w3.org/2000/svg">
 <path id="path2" d="m21.227117 8.2692568c-0.646479-0.5944338-0.0018-0.00677-0.673846-0.6282531l-7.409576-6.5232862-8.5122211 2.2808429-0.3924073 0.1051453c-0.42875 1.3042292-0.081902 0.25187-0.2888487 0.8538539l-2.8383712 8.3633484c-0.34415135 1.019149 0.00212 0.0077-0.3389637 1.029044 7.2193677 6.371918 5.4438641 4.808645 7.5405719 6.649948 0.6093441 0.490617 0.1220457 0.08862 0.6145397 0.482382l0.332037-0.08897 0.030185-0.0081 7.3349994-1.965407 1.177222-0.315435c0.892554-2.644934 0.130904-0.386976 0.216637-0.64039l2.938601-8.7137172 0.136336-0.4571121c0.102615-0.3202302-0.447241 1.3863633 0.133105-0.4238939zm-1.597164-0.0896793-7.485925 2.0058475-0.106732-0.036106-0.177357-0.1789439-6.5168683-5.7272103 7.5161103-2.0139358zm0.258819 0.9659258-2.888486 8.5385387-7.3651847 1.973495 2.8884867-8.538539zm-8.397982 1.8620037-2.8162743 8.325075-6.7244106-5.898066 2.8081861-8.35526 6.4322328 5.652831z" style="fill:#dfdfdf"/>
</svg>

<?xml version="1.0" encoding="UTF-8" standalone="no"?>
<svg
   xmlns:dc="http://purl.org/dc/elements/1.1/"
   xmlns:cc="http://creativecommons.org/ns#"
   xmlns:rdf="http://www.w3.org/1999/02/22-rdf-syntax-ns#"
   xmlns:svg="http://www.w3.org/2000/svg"
   xmlns="http://www.w3.org/2000/svg"
   id="svg12"
   version="1.1"
   viewBox="0 0 22 22">
  <metadata
     id="metadata18">
    <rdf:RDF>
      <cc:Work
         rdf:about="">
        <dc:format>image/svg+xml</dc:format>
        <dc:type
           rdf:resource="http://purl.org/dc/dcmitype/StillImage" />
        <dc:title></dc:title>
      </cc:Work>
    </rdf:RDF>
  </metadata>
  <defs
     id="defs16" />
  <path
     d="M 21.227117,8.2692568 C 20.580638,7.674823 21.225317,8.2624868 20.553271,7.6410037 L 13.143695,1.1177175 11.966473,1.4331532 4.6314739,3.3985604 4.2390666,3.5037057 c -0.42875,1.3042292 -0.081902,0.25187 -0.2888487,0.8538539 L 1.1118467,12.720908 c -0.34415135,1.019149 0.00212,0.0077 -0.3389637,1.029044 7.2193677,6.371918 5.4438641,4.808645 7.5405719,6.649948 0.6093441,0.490617 0.1220457,0.08862 0.6145397,0.482382 l 0.332037,-0.08897 0.030185,-0.0081 7.3349994,-1.965407 1.177222,-0.315435 c 0.892554,-2.644934 0.130904,-0.386976 0.216637,-0.64039 L 20.957676,9.1502628 21.094012,8.6931507 C 21.196627,8.3729205 20.646771,10.079514 21.227117,8.2692568 Z M 19.629953,8.1795775 12.144028,10.185425 12.037296,10.149319 11.859939,9.9703751 5.3430707,4.2431648 12.859181,2.229229 Z m 0.258819,0.9659258 -2.888486,8.5385387 -7.3651847,1.973495 2.8884867,-8.538539 z M 11.49079,11.007507 8.6745157,19.332582 1.9501051,13.434516 4.7582912,5.079256 11.190524,10.732087 Z"
     id="path2"
     style="fill:#dfdfdf" />
</svg>
